flaticon/sport/weight-2.svg

<svg xmlns="http://www.w3.org/2000/svg" width="32" height="32" viewBox="0 0 24 24">
    <path d="M 24 3.128906 C 24 2.933594 23.921875 2.746094 23.785156 2.609375 L 21.390625 0.214844 C 21.105469 -0.0703125 20.636719 -0.0703125 20.351562 0.214844 L 19.613281 0.953125 L 19.304688 0.644531 C 19.148438 0.488281 18.890625 0.488281 18.734375 0.644531 C 18.574219 0.804688 18.574219 1.058594 18.734375 1.21875 L 19.039062 1.523438 L 18.398438 2.167969 L 18.09375 1.859375 C 17.933594 1.703125 17.679688 1.703125 17.519531 1.859375 C 17.363281 2.019531 17.363281 2.273438 17.519531 2.433594 L 17.828125 2.738281 L 2.617188 17.949219 L 2.308594 17.644531 C 2.152344 17.484375 1.894531 17.484375 1.738281 17.644531 C 1.578125 17.800781 1.578125 18.058594 1.738281 18.214844 L 2.042969 18.523438 L 1.402344 19.164062 L 1.09375 18.859375 C 0.9375 18.699219 0.679688 18.699219 0.523438 18.859375 C 0.363281 19.015625 0.363281 19.273438 0.523438 19.429688 L 0.828125 19.734375 L 0.214844 20.351562 C 0.078125 20.488281 0 20.675781 0 20.871094 C 0 21.066406 0.078125 21.253906 0.214844 21.390625 L 2.609375 23.785156 C 2.746094 23.921875 2.933594 24 3.128906 24 C 3.328125 24 3.511719 23.921875 3.648438 23.785156 L 4.265625 23.171875 L 4.570312 23.476562 C 4.648438 23.554688 4.753906 23.59375 4.855469 23.59375 C 4.960938 23.59375 5.0625 23.554688 5.144531 23.476562 C 5.300781 23.320312 5.300781 23.0625 5.144531 22.90625 L 4.835938 22.597656 L 5.476562 21.957031 L 5.785156 22.261719 C 5.863281 22.339844 5.96875 22.382812 6.070312 22.382812 C 6.175781 22.382812 6.277344 22.339844 6.355469 22.261719 C 6.515625 22.105469 6.515625 21.847656 6.355469 21.691406 L 6.050781 21.382812 L 21.261719 6.171875 L 21.566406 6.480469 C 21.644531 6.558594 21.75 6.597656 21.851562 6.597656 C 21.957031 6.597656 22.0625 6.558594 22.140625 6.480469 C 22.296875 6.320312 22.296875 6.066406 22.140625 5.90625 L 21.832031 5.601562 L 22.476562 4.960938 L 22.78125 5.265625 C 22.859375 5.34375 22.964844 5.382812 23.066406 5.382812 C 23.171875 5.382812 23.273438 5.34375 23.355469 5.265625 C 23.511719 5.105469 23.511719 4.851562 23.355469 4.691406 L 23.046875 4.386719 L 23.785156 3.648438 C 23.921875 3.511719 24 3.324219 24 3.128906 Z M 3.128906 23.160156 L 0.839844 20.871094 L 1.402344 20.308594 L 3.691406 22.597656 Z M 4.261719 22.027344 L 1.972656 19.738281 L 2.617188 19.09375 L 4.90625 21.382812 Z M 5.476562 20.8125 L 3.1875 18.523438 L 18.398438 3.3125 L 20.6875 5.601562 Z M 21.261719 5.027344 L 18.972656 2.738281 L 19.613281 2.097656 L 21.902344 4.386719 Z M 22.476562 3.8125 L 20.1875 1.523438 L 20.871094 0.839844 L 23.160156 3.128906 Z M 22.476562 3.8125"/>
    <path d="M 8.902344 13.074219 C 9.125 13.074219 9.308594 13.253906 9.308594 13.476562 C 9.308594 13.703125 9.125 13.882812 8.902344 13.882812 C 8.679688 13.882812 8.5 13.703125 8.5 13.476562 C 8.5 13.253906 8.679688 13.074219 8.902344 13.074219 Z M 10.523438 13.074219 C 10.746094 13.074219 10.925781 13.253906 10.925781 13.476562 C 10.925781 13.703125 10.746094 13.882812 10.523438 13.882812 C 10.296875 13.882812 10.117188 13.703125 10.117188 13.476562 C 10.117188 13.253906 10.296875 13.074219 10.523438 13.074219 Z M 10.523438 11.453125 C 10.746094 11.453125 10.925781 11.636719 10.925781 11.859375 C 10.925781 12.082031 10.746094 12.265625 10.523438 12.265625 C 10.296875 12.265625 10.117188 12.082031 10.117188 11.859375 C 10.117188 11.636719 10.296875 11.453125 10.523438 11.453125 Z M 10.523438 14.691406 C 10.746094 14.691406 10.925781 14.875 10.925781 15.097656 C 10.925781 15.320312 10.746094 15.5 10.523438 15.5 C 10.296875 15.5 10.117188 15.320312 10.117188 15.097656 C 10.117188 14.875 10.296875 14.691406 10.523438 14.691406 Z M 12.140625 13.074219 C 12.363281 13.074219 12.546875 13.253906 12.546875 13.476562 C 12.546875 13.703125 12.363281 13.882812 12.140625 13.882812 C 11.917969 13.882812 11.734375 13.703125 11.734375 13.476562 C 11.734375 13.253906 11.917969 13.074219 12.140625 13.074219 Z M 12.140625 11.453125 C 12.363281 11.453125 12.546875 11.636719 12.546875 11.859375 C 12.546875 12.082031 12.363281 12.265625 12.140625 12.265625 C 11.917969 12.265625 11.734375 12.082031 11.734375 11.859375 C 11.734375 11.636719 11.917969 11.453125 12.140625 11.453125 Z M 12.140625 9.835938 C 12.363281 9.835938 12.546875 10.015625 12.546875 10.242188 C 12.546875 10.464844 12.363281 10.644531 12.140625 10.644531 C 11.917969 10.644531 11.734375 10.464844 11.734375 10.242188 C 11.734375 10.015625 11.917969 9.835938 12.140625 9.835938 Z M 13.757812 11.453125 C 13.984375 11.453125 14.164062 11.636719 14.164062 11.859375 C 14.164062 12.082031 13.984375 12.265625 13.757812 12.265625 C 13.535156 12.265625 13.355469 12.082031 13.355469 11.859375 C 13.355469 11.636719 13.535156 11.453125 13.757812 11.453125 Z M 13.757812 9.835938 C 13.984375 9.835938 14.164062 10.015625 14.164062 10.242188 C 14.164062 10.464844 13.984375 10.644531 13.757812 10.644531 C 13.535156 10.644531 13.355469 10.464844 13.355469 10.242188 C 13.355469 10.015625 13.535156 9.835938 13.757812 9.835938 Z M 13.757812 8.21875 C 13.984375 8.21875 14.164062 8.398438 14.164062 8.621094 C 14.164062 8.84375 13.984375 9.027344 13.757812 9.027344 C 13.535156 9.027344 13.355469 8.84375 13.355469 8.621094 C 13.355469 8.398438 13.535156 8.21875 13.757812 8.21875 Z M 15.378906 9.835938 C 15.601562 9.835938 15.78125 10.015625 15.78125 10.242188 C 15.78125 10.464844 15.601562 10.644531 15.378906 10.644531 C 15.15625 10.644531 14.972656 10.464844 14.972656 10.242188 C 14.972656 10.015625 15.15625 9.835938 15.378906 9.835938 Z M 15.378906 9.835938"/>
</svg>

<svg xmlns="http://www.w3.org/2000/svg" width="32" height="32" viewBox="0 0 24 24">
    <path d="M24 3.129a.736.736 0 0 0-.215-.52L21.391.215a.738.738 0 0 0-1.04 0l-.738.738-.308-.308a.406.406 0 0 0-.57.574l.304.304-.64.645-.305-.309a.41.41 0 0 0-.574 0 .41.41 0 0 0 0 .575l.308.304L2.618 17.95l-.31-.304a.399.399 0 0 0-.57 0 .399.399 0 0 0 0 .57l.305.308-.64.641-.31-.305a.399.399 0 0 0-.57 0 .399.399 0 0 0 0 .57l.305.305-.613.618a.736.736 0 0 0 0 1.039l2.394 2.394a.736.736 0 0 0 1.04 0l.617-.613.304.305a.405.405 0 0 0 .285.117c.106 0 .207-.04.29-.117a.406.406 0 0 0 0-.57l-.31-.31.642-.64.308.305a.41.41 0 0 0 .285.12.403.403 0 0 0 .285-.12.399.399 0 0 0 0-.57l-.304-.31 15.21-15.21.305.308a.408.408 0 0 0 .574 0 .41.41 0 0 0 0-.574l-.308-.304.645-.641.304.305a.405.405 0 0 0 .285.117c.106 0 .207-.04.29-.117a.41.41 0 0 0 0-.575l-.31-.304.74-.739a.736.736 0 0 0 .214-.52zM3.129 23.16l-2.29-2.289.563-.562 2.29 2.289zm1.133-1.133l-2.29-2.289.645-.644 2.29 2.289zm1.215-1.215l-2.29-2.289 15.211-15.21 2.29 2.289zM21.262 5.027l-2.29-2.289.641-.64 2.29 2.289zm1.215-1.215l-2.29-2.289.684-.683 2.29 2.289zm0 0"/>
    <path d="M8.902 13.074a.405.405 0 1 1 .003.81.405.405 0 0 1-.003-.81zm1.621 0c.223 0 .403.18.403.403 0 .226-.18.406-.403.406a.403.403 0 1 1 0-.809zm0-1.62a.405.405 0 1 1-.406.406c0-.223.18-.407.406-.407zm0 3.237a.405.405 0 1 1-.005.81.405.405 0 0 1 .005-.81zm1.618-1.617a.405.405 0 1 1 0 .809.405.405 0 0 1 0-.809zm0-1.62c.222 0 .406.183.406.405a.408.408 0 0 1-.406.407.408.408 0 0 1-.407-.407c0-.222.184-.406.407-.406zm0-1.618c.222 0 .406.18.406.406a.405.405 0 0 1-.406.403.405.405 0 1 1 0-.81zm1.617 1.617a.406.406 0 1 1 0 .813.405.405 0 0 1-.403-.407c0-.222.18-.406.403-.406zm0-1.617a.403.403 0 1 1 0 .809.402.402 0 0 1-.403-.403c0-.226.18-.406.403-.406zm0-1.617c.226 0 .406.18.406.402a.405.405 0 1 1-.406-.402zm1.62 1.617c.224 0 .403.18.403.406a.405.405 0 1 1-.402-.406zm0 0"/>
</svg>
